3ds/logo.svg

<?xml version="1.0" encoding="UTF-8"?>
<!DOCTYPE svg PUBLIC "-//W3C//DTD SVG 1.1//EN" "http://www.w3.org/Graphics/SVG/1.1/DTD/svg11.dtd">
<svg xmlns="http://www.w3.org/2000/svg" width="250" height="30"><path d="m130.6,27c0,0.3-0.3,0.6-0.6,0.6l -10.9,0c -0.3,0-0.6,-0.3-0.6,-0.6l0,-7.9c0,-0.3 0.3,-0.6 0.6,-0.6l10.9,0c0.3,0 0.6,0.3 0.6,0.6l0,7.9z m -0.5,-10.9-11.1,10e-4c -1.6,0-2.9,1.3-2.9,2.9l0,7.9c0,1.6 1.3,2.9 2.9,2.9l11.1,0c1.6,0 2.9,-1.3 2.9,-2.9l0,-7.9c0,-1.6-1.3,-2.9-2.9,-2.9" fill="#a09d9e"/><path d="m2.3,4.3 0,10.2-2.6,0 0,-13.8 2.2,0 10.4,10.1 0,-10.1 2,0 0.5,0 0,13.8-2,0-10.5,-10.2z" fill="#231f20"/><path d="m28,4.3 0,10.2-2.6,0 0,-13.8 2.2,0 10.4,10.1 0,-10.1 2,0 0.5,0 0,13.8-2,0-10.5,-10.2z" fill="#231f20"/><path d="m81.1,4.3 0,10.2-2.6,0 0,-13.8 2.2,0 10.4,10.1 0,-10.1 2,0 0.5,0 0,13.8-2,0-10.5,-10.2z" fill="#231f20"/><path d="m20.9,0.7 0.5,0 0,13.8-2.6,0 0,-13.8 2.1,0z" fill="#231f20"/><path d="m57.9,0.7 0.5,0 0,2.4-6.2,0 0,11.4-2.7,0 0,-11.4-6.2,0 0,-2.4 14.5,0z" fill="#231f20"/><path d="m74.2,0.7 0.5,0 0,2.4-10.9,0 0,3.1 8.5,0 0,2.4-8.5,0 0,3.6 10.9,0 0,2.4-13.5,0 0,-13.8 13,0z" fill="#231f20"/><path d="m107.8,12.1-7.8,0 0,-9 0.1,0 7.8,0c2.5,0 3.3,2.4 3.3,4.5 0,2.1-0.9,4.5-3.3,4.5m4.2,-9.4c -1,-1.3-2.5,-2-4.3,-2l -10.2,0 0,13.8 10.2,0c1.8,0 3.3,-0.7 4.3,-2 0.9,-1.2 1.4,-2.9 1.4,-4.9 0,-2-0.5,-3.7-1.4,-4.9" fill="#231f20"/><path d="m130.6,11.6c0,0.3-0.3,0.6-0.6,0.6l -10.9,0c -0.3,0-0.6,-0.3-0.6,-0.6l0,-7.9c0,-0.3 0.3,-0.6 0.6,-0.6l10.9,0c0.3,0 0.6,0.3 0.6,0.6l0,7.9z m -0.5,-10.9-11.1,0c -1.6,0-2.9,1.3-2.9,2.9l0,8c0,1.6 1.3,2.9 2.9,2.9l11.1,0c1.6,0 2.9,-1.3 2.9,-2.9l0,-8c0,-1.6-1.3,-2.9-2.9,-2.9" fill="#231f20"/><path d="m213.1,24.2c2.6,1 8.2,1.9 12.6,1.9 4.8,0 6.8,-1.6 6.8,-3.7 0,-1.8-1.8,-2.9-7.1,-4.9-7.1,-2.6-12.2,-4.7-12.2,-9.3 0,-4.8 6.2,-7.6 15.7,-7.6 5.1,0 6.8,0.3 10.1,0.9l0,4.6c -3.2,-0.6-6,-1.6-10.4,-1.6-4.7,0-6.7,1.5-6.7,3 0,2.2 3.1,3.3 8.5,5.2 7.5,2.7 11.7,4.8 11.7,9.3 0,4.7-5.2,8-17.1,8-4.8,0-8.2,-0.3-11.9,-0.9l0,-4.9z" fill="#231f20"/><path d="m188,4.6-5.6,0 0,21.3 5.6,0c8.6,0 14.1,-3.7 14.1,-10.6 0,-6.9-5.4,-10.7-14.1,-10.7m15.1,23.3c -2.8,1.3-8,2.1-12.6,2.1l -17.6,0 0,-29.3 17.6,0c4.6,0 9.9,0.8 12.7,2.1 6.8,3.1 9,7.9 9,12.6 0,4.6-2.2,9.5-9,12.6" fill="#231f20"/><path d="m160.5,13.9c0,0 8.2,-1.3 8.2,-6.4 0,-5-8.7,-7-18,-7-8.4,0-13.9,1-13.9,1l0,4.5c3.8,-0.9 7.4,-1.7 12.4,-1.7 5.3,0 9.4,1.6 9.4,3.8 0,2.7-4,4.3-12.7,4.3l -4,0 0,4.1 3.7,0c9.1,0 14.3,1.4 14.3,4.7 0,3-4.6,4.8-10.4,4.8-5,0-9.6,-1.1-13.4,-2.1l0,4.9c1.8,0.3 6.6,1.3 15.4,1.3 9.8,0 18.4,-3.2 18.4,-8.7 0,-4.7-5.9,-7.4-9.4,-7.4" fill="#cf181f"/><path d="m244.5,25.9-0.9,0 0,-0.5 2.4,0 0,0.5-0.9,0 0,2.8-0.6,0 0,-2.8z" fill="#231f20"/><path d="m249.1,27.4c -0,-0.4-0,-0.9-0,-1.4l -0,0c -0.1,0.4-0.2,0.8-0.4,1.2l -0.5,1.4-0.5,0-0.4,-1.4c -0.1,-0.4-0.2,-0.9-0.3,-1.3l -0,0c -0,0.4-0,0.9-0.1,1.4l -0.1,1.3-0.6,0 0.2,-3.2 0.8,0 0.4,1.3c0.1,0.4 0.2,0.8 0.3,1.1l0,0c0.1,-0.4 0.2,-0.8 0.3,-1.1l0.4,-1.3 0.8,0 0.2,3.2-0.6,0-0.1,-1.3z" fill="#231f20"/></svg>

<?xml version="1.0" encoding="UTF-8" standalone="no"?>
<svg
   xmlns:dc="http://purl.org/dc/elements/1.1/"
   xmlns:cc="http://creativecommons.org/ns#"
   xmlns:rdf="http://www.w3.org/1999/02/22-rdf-syntax-ns#"
   xmlns:svg="http://www.w3.org/2000/svg"
   xmlns="http://www.w3.org/2000/svg"
   xmlns:sodipodi="http://sodipodi.sourceforge.net/DTD/sodipodi-0.dtd"
   xmlns:inkscape="http://www.inkscape.org/namespaces/inkscape"
   width="600.47473"
   height="71.124657"
   version="1.1"
   id="svg30"
   sodipodi:docname="logo.svg"
   inkscape:version="0.92.4 (5da689c313, 2019-01-14)">
  <metadata
     id="metadata36">
    <rdf:RDF>
      <cc:Work
         rdf:about="">
        <dc:format>image/svg+xml</dc:format>
        <dc:type
           rdf:resource="http://purl.org/dc/dcmitype/StillImage" />
        <dc:title></dc:title>
      </cc:Work>
    </rdf:RDF>
  </metadata>
  <defs
     id="defs34" />
  <sodipodi:namedview
     pagecolor="#ffffff"
     bordercolor="#666666"
     borderopacity="1"
     objecttolerance="10"
     gridtolerance="10"
     guidetolerance="10"
     inkscape:pageopacity="0"
     inkscape:pageshadow="2"
     inkscape:window-width="1366"
     inkscape:window-height="704"
     id="namedview32"
     showgrid="false"
     inkscape:zoom="1.392"
     inkscape:cx="207.32544"
     inkscape:cy="27.889024"
     inkscape:window-x="0"
     inkscape:window-y="27"
     inkscape:window-maximized="1"
     inkscape:current-layer="svg30" />
  <g
     id="g52"
     transform="matrix(2.40286,0,0,2.40286,0.720858,-1.20143)">
    <path
       id="path2"
       d="m 130.6,27 c 0,0.3 -0.3,0.6 -0.6,0.6 h -10.9 c -0.3,0 -0.6,-0.3 -0.6,-0.6 v -7.9 c 0,-0.3 0.3,-0.6 0.6,-0.6 H 130 c 0.3,0 0.6,0.3 0.6,0.6 z M 130.1,16.1 119,16.101 c -1.6,0 -2.9,1.3 -2.9,2.9 v 7.9 c 0,1.6 1.3,2.9 2.9,2.9 h 11.1 c 1.6,0 2.9,-1.3 2.9,-2.9 v -7.9 c 0,-1.6 -1.3,-2.9 -2.9,-2.9"
       inkscape:connector-curvature="0"
       style="fill:#a09d9e" />
    <path
       id="path4"
       d="M 2.3,4.3 V 14.5 H -0.3 V 0.7 H 1.9 L 12.3,10.8 V 0.7 h 2 0.5 v 13.8 h -2 z"
       inkscape:connector-curvature="0"
       style="fill:#231f20" />
    <path
       id="path6"
       d="M 28,4.3 V 14.5 H 25.4 V 0.7 h 2.2 L 38,10.8 V 0.7 h 2 0.5 v 13.8 h -2 z"
       inkscape:connector-curvature="0"
       style="fill:#231f20" />
    <path
       id="path8"
       d="M 81.1,4.3 V 14.5 H 78.5 V 0.7 h 2.2 L 91.1,10.8 V 0.7 h 2 0.5 v 13.8 h -2 z"
       inkscape:connector-curvature="0"
       style="fill:#231f20" />
    <path
       id="path10"
       d="m 20.9,0.7 h 0.5 V 14.5 H 18.8 V 0.7 Z"
       inkscape:connector-curvature="0"
       style="fill:#231f20" />
    <path
       id="path12"
       d="m 57.9,0.7 h 0.5 V 3.1 H 52.2 V 14.5 H 49.5 V 3.1 H 43.3 V 0.7 h 14.5 z"
       inkscape:connector-curvature="0"
       style="fill:#231f20" />
    <path
       id="path14"
       d="m 74.2,0.7 h 0.5 V 3.1 H 63.8 v 3.1 h 8.5 v 2.4 h -8.5 v 3.6 h 10.9 v 2.4 H 61.2 V 0.8 h 13 z"
       inkscape:connector-curvature="0"
       style="fill:#231f20" />
    <path
       id="path16"
       d="M 107.8,12.1 H 100 v -9 h 0.1 7.8 c 2.5,0 3.3,2.4 3.3,4.5 0,2.1 -0.9,4.5 -3.3,4.5 m 4.2,-9.4 c -1,-1.3 -2.5,-2 -4.3,-2 H 97.6 v 13.8 h 10.2 c 1.8,0 3.3,-0.7 4.3,-2 0.9,-1.2 1.4,-2.9 1.4,-4.9 0,-2 -0.5,-3.7 -1.4,-4.9"
       inkscape:connector-curvature="0"
       style="fill:#231f20" />
    <path
       id="path18"
       d="m 130.6,11.6 c 0,0.3 -0.3,0.6 -0.6,0.6 h -10.9 c -0.3,0 -0.6,-0.3 -0.6,-0.6 V 3.7 c 0,-0.3 0.3,-0.6 0.6,-0.6 H 130 c 0.3,0 0.6,0.3 0.6,0.6 z M 130.1,0.7 H 119 c -1.6,0 -2.9,1.3 -2.9,2.9 v 8 c 0,1.6 1.3,2.9 2.9,2.9 h 11.1 c 1.6,0 2.9,-1.3 2.9,-2.9 v -8 C 133,2 131.7,0.7 130.1,0.7"
       inkscape:connector-curvature="0"
       style="fill:#231f20" />
    <path
       id="path20"
       d="m 213.1,24.2 c 2.6,1 8.2,1.9 12.6,1.9 4.8,0 6.8,-1.6 6.8,-3.7 0,-1.8 -1.8,-2.9 -7.1,-4.9 -7.1,-2.6 -12.2,-4.7 -12.2,-9.3 0,-4.8 6.2,-7.6 15.7,-7.6 5.1,0 6.8,0.3 10.1,0.9 v 4.6 c -3.2,-0.6 -6,-1.6 -10.4,-1.6 -4.7,0 -6.7,1.5 -6.7,3 0,2.2 3.1,3.3 8.5,5.2 7.5,2.7 11.7,4.8 11.7,9.3 0,4.7 -5.2,8 -17.1,8 -4.8,0 -8.2,-0.3 -11.9,-0.9 z"
       inkscape:connector-curvature="0"
       style="fill:#231f20" />
    <path
       id="path22"
       d="m 188,4.6 h -5.6 v 21.3 h 5.6 c 8.6,0 14.1,-3.7 14.1,-10.6 0,-6.9 -5.4,-10.7 -14.1,-10.7 m 15.1,23.3 c -2.8,1.3 -8,2.1 -12.6,2.1 H 172.9 V 0.7 h 17.6 c 4.6,0 9.9,0.8 12.7,2.1 6.8,3.1 9,7.9 9,12.6 0,4.6 -2.2,9.5 -9,12.6"
       inkscape:connector-curvature="0"
       style="fill:#231f20" />
    <path
       id="path24"
       d="m 160.5,13.9 c 0,0 8.2,-1.3 8.2,-6.4 0,-5 -8.7,-7 -18,-7 -8.4,0 -13.9,1 -13.9,1 V 6 c 3.8,-0.9 7.4,-1.7 12.4,-1.7 5.3,0 9.4,1.6 9.4,3.8 0,2.7 -4,4.3 -12.7,4.3 h -4 v 4.1 h 3.7 c 9.1,0 14.3,1.4 14.3,4.7 0,3 -4.6,4.8 -10.4,4.8 -5,0 -9.6,-1.1 -13.4,-2.1 v 4.9 c 1.8,0.3 6.6,1.3 15.4,1.3 9.8,0 18.4,-3.2 18.4,-8.7 0,-4.7 -5.9,-7.4 -9.4,-7.4"
       inkscape:connector-curvature="0"
       style="fill:#cf181f" />
    <path
       id="path26"
       d="m 244.5,25.9 h -0.9 v -0.5 h 2.4 v 0.5 h -0.9 v 2.8 h -0.6 z"
       inkscape:connector-curvature="0"
       style="fill:#231f20" />
    <path
       id="path28"
       d="m 249.1,27.4 c 0,-0.4 0,-0.9 0,-1.4 v 0 c -0.1,0.4 -0.2,0.8 -0.4,1.2 l -0.5,1.4 h -0.5 l -0.4,-1.4 c -0.1,-0.4 -0.2,-0.9 -0.3,-1.3 v 0 c 0,0.4 0,0.9 -0.1,1.4 l -0.1,1.3 h -0.6 l 0.2,-3.2 h 0.8 l 0.4,1.3 c 0.1,0.4 0.2,0.8 0.3,1.1 v 0 c 0.1,-0.4 0.2,-0.8 0.3,-1.1 l 0.4,-1.3 h 0.8 l 0.2,3.2 H 249 l -0.1,-1.3 z"
       inkscape:connector-curvature="0"
       style="fill:#231f20" />
  </g>
</svg>
